Numix-Circle/48x48/apps/navit.svg

<?xml version="1.0" encoding="UTF-8" standalone="no"?>
<svg
   xmlns:dc="http://purl.org/dc/elements/1.1/"
   xmlns:cc="http://creativecommons.org/ns#"
   xmlns:rdf="http://www.w3.org/1999/02/22-rdf-syntax-ns#"
   xmlns:svg="http://www.w3.org/2000/svg"
   xmlns="http://www.w3.org/2000/svg"
   xmlns:sodipodi="http://sodipodi.sourceforge.net/DTD/sodipodi-0.dtd"
   xmlns:inkscape="http://www.inkscape.org/namespaces/inkscape"
   viewBox="0 0 48 48"
   id="svg2"
   version="1.1"
   inkscape:version="0.48.5 r10040"
   width="100%"
   height="100%"
   sodipodi:docname="navit.svg">
  <metadata
     id="metadata73">
    <rdf:RDF>
      <cc:Work
         rdf:about="">
        <dc:format>image/svg+xml</dc:format>
        <dc:type
           rdf:resource="http://purl.org/dc/dcmitype/StillImage" />
        <dc:title />
      </cc:Work>
    </rdf:RDF>
  </metadata>
  <sodipodi:namedview
     pagecolor="#ffffff"
     bordercolor="#666666"
     borderopacity="1"
     objecttolerance="10"
     gridtolerance="10"
     guidetolerance="10"
     inkscape:pageopacity="0"
     inkscape:pageshadow="2"
     inkscape:window-width="1366"
     inkscape:window-height="713"
     id="namedview71"
     showgrid="false"
     inkscape:zoom="11.313708"
     inkscape:cx="21.53265"
     inkscape:cy="20.862606"
     inkscape:window-x="0"
     inkscape:window-y="28"
     inkscape:window-maximized="1"
     inkscape:current-layer="svg2">
    <inkscape:grid
       type="xygrid"
       id="grid3820" />
  </sodipodi:namedview>
  <defs
     id="defs4">
    <linearGradient
       id="linearGradient3764"
       x1="1"
       x2="47"
       gradientUnits="userSpaceOnUse"
       gradientTransform="matrix(0,-1,1,0,-1.5e-6,47.999998)">
      <stop
         stop-color="#71bcbf"
         stop-opacity="1"
         id="stop7" />
      <stop
         offset="1"
         stop-color="#7ec2c5"
         stop-opacity="1"
         id="stop9" />
    </linearGradient>
    <clipPath
       id="clipPath-369311774">
      <g
         transform="translate(0,-1004.3622)"
         id="g12">
        <path
           d="m -24 13 c 0 1.105 -0.672 2 -1.5 2 -0.828 0 -1.5 -0.895 -1.5 -2 0 -1.105 0.672 -2 1.5 -2 0.828 0 1.5 0.895 1.5 2 z"
           transform="matrix(15.333333,0,0,11.5,414.99999,878.8622)"
           fill="#1890d0"
           id="path14" />
      </g>
    </clipPath>
    <clipPath
       id="clipPath-378684348">
      <g
         transform="translate(0,-1004.3622)"
         id="g17">
        <path
           d="m -24 13 c 0 1.105 -0.672 2 -1.5 2 -0.828 0 -1.5 -0.895 -1.5 -2 0 -1.105 0.672 -2 1.5 -2 0.828 0 1.5 0.895 1.5 2 z"
           transform="matrix(15.333333,0,0,11.5,414.99999,878.8622)"
           fill="#1890d0"
           id="path19" />
      </g>
    </clipPath>
  </defs>
  <g
     id="g21">
    <path
       d="m 36.31 5 c 5.859 4.062 9.688 10.831 9.688 18.5 c 0 12.426 -10.07 22.5 -22.5 22.5 c -7.669 0 -14.438 -3.828 -18.5 -9.688 c 1.037 1.822 2.306 3.499 3.781 4.969 c 4.085 3.712 9.514 5.969 15.469 5.969 c 12.703 0 23 -10.298 23 -23 c 0 -5.954 -2.256 -11.384 -5.969 -15.469 c -1.469 -1.475 -3.147 -2.744 -4.969 -3.781 z m 4.969 3.781 c 3.854 4.113 6.219 9.637 6.219 15.719 c 0 12.703 -10.297 23 -23 23 c -6.081 0 -11.606 -2.364 -15.719 -6.219 c 4.16 4.144 9.883 6.719 16.219 6.719 c 12.703 0 23 -10.298 23 -23 c 0 -6.335 -2.575 -12.06 -6.719 -16.219 z"
       opacity="0.05"
       id="path23" />
    <path
       d="m 41.28 8.781 c 3.712 4.085 5.969 9.514 5.969 15.469 c 0 12.703 -10.297 23 -23 23 c -5.954 0 -11.384 -2.256 -15.469 -5.969 c 4.113 3.854 9.637 6.219 15.719 6.219 c 12.703 0 23 -10.298 23 -23 c 0 -6.081 -2.364 -11.606 -6.219 -15.719 z"
       opacity="0.1"
       id="path25" />
    <path
       d="m 31.25 2.375 c 8.615 3.154 14.75 11.417 14.75 21.13 c 0 12.426 -10.07 22.5 -22.5 22.5 c -9.708 0 -17.971 -6.135 -21.12 -14.75 a 23 23 0 0 0 44.875 -7 a 23 23 0 0 0 -16 -21.875 z"
       opacity="0.2"
       id="path27" />
  </g>
  <g
     id="g29">
    <path
       d="m 24 1 c 12.703 0 23 10.297 23 23 c 0 12.703 -10.297 23 -23 23 -12.703 0 -23 -10.297 -23 -23 0 -12.703 10.297 -23 23 -23 z"
       fill="url(#linearGradient3764)"
       fill-opacity="1"
       id="path31" />
  </g>
  <g
     id="g33" />
  <g
     id="g67">
    <path
       d="m 40.03 7.531 c 3.712 4.084 5.969 9.514 5.969 15.469 0 12.703 -10.297 23 -23 23 c -5.954 0 -11.384 -2.256 -15.469 -5.969 4.178 4.291 10.01 6.969 16.469 6.969 c 12.703 0 23 -10.298 23 -23 0 -6.462 -2.677 -12.291 -6.969 -16.469 z"
       opacity="0.1"
       id="path69" />
  </g>
  <g
     id="g6272">
    <g
       id="g35">
      <g
         id="g37"
         clip-path="url(#clipPath-369311774)">
        <g
           id="g39"
           transform="translate(1,1)">
          <g
             id="g41"
             opacity="0.1">
            <!-- color: #7ec2c5 -->
            <g
               id="g43">
              <path
                 id="path45"
                 d="m 38 24 c 0 7.734 -6.266 14 -14 14 c -7.734 0 -14 -6.27 -14 -14 c 0 -7.734 6.266 -14 14 -14 c 7.734 0 14 6.27 14 14 m 0 0"
                 stroke="none"
                 fill-rule="nonzero"
                 fill-opacity="1"
                 fill="#000" />
              <path
                 id="path47"
                 d="m 23 20 l 0 12 l 2 0 l 0 -12 m -2 0"
                 stroke="none"
                 fill-rule="nonzero"
                 fill-opacity="1"
                 fill="#000" />
              <path
                 id="path49"
                 d="m 25 17 c 0 0.551 -0.449 1 -1 1 c -0.551 0 -1 -0.449 -1 -1 c 0 -0.551 0.449 -1 1 -1 c 0.551 0 1 0.449 1 1 m 0 0"
                 stroke="none"
                 fill-rule="nonzero"
                 fill-opacity="1"
                 fill="#000" />
              <path
                 id="path51"
                 d="m 24 9 c -8.285 0 -15 6.715 -15 15 c 0 8.285 6.715 15 15 15 c 8.285 0 15 -6.715 15 -15 c 0 -8.285 -6.715 -15 -15 -15 m 0 2 c 7.18 0 13 5.82 13 13 c 0 7.18 -5.82 13 -13 13 c -7.18 0 -13 -5.82 -13 -13 c 0 -7.18 5.82 -13 13 -13 m 0 0"
                 stroke="none"
                 fill-rule="nonzero"
                 fill-opacity="1"
                 fill="#000" />
            </g>
          </g>
        </g>
      </g>
    </g>
    <g
       id="g53">
      <g
         id="g55"
         clip-path="url(#clipPath-378684348)">
        <!-- color: #7ec2c5 -->
        <g
           id="g57">
          <path
             sodipodi:nodetypes="csssc"
             style="fill:#2a8ff6;fill-opacity:1;fill-rule:nonzero;stroke:none"
             inkscape:connector-curvature="0"
             id="path65"
             d="M 24,9 C 15.715,9 9,15.715 9,24 9,32.285 15.715,39 24,39 32.285,39 39,32.285 39,24 39,15.715 32.285,9 24,9" />
        </g>
      </g>
    </g>
    <path
       inkscape:connector-curvature="0"
       id="path3859"
       sodipodi:nodetypes="cccccccccc"
       style="fill:#000000;fill-opacity:0.09803922"
       d="m 22,30.999997 c 0,-6.518276 4.828251,-8.25 4.828251,-8.25 L 27.159999,26.554541 33,18.45454 23.545456,16 c 0,0 1.943697,2.938221 2.036365,3.149994 C 21.220971,21.220971 18,24.491175 18,30.999997 L 18,33 l 4,0 c 0,0 0,-1.250011 0,-2.000003 z" />
    <path
       d="m 21,29.999997 c 0,-6.518276 4.828251,-8.25 4.828251,-8.25 L 26.159999,25.554541 32,17.45454 22.545456,15 c 0,0 1.943697,2.938221 2.036365,3.149994 C 20.220971,20.220971 17,23.491175 17,29.999997 L 17,32 l 4,0 c 0,0 0,-1.250011 0,-2.000003 z"
       style="fill:#ececec;fill-opacity:1"
       sodipodi:nodetypes="cccccccccc"
       id="path2479-2"
       inkscape:connector-curvature="0" />
    <path
       id="path65-2"
       d="M 24,9 C 15.715,9 9,15.715 9,24 9,32.285 15.715,39 24,39 32.285,39 39,32.285 39,24 39,15.715 32.285,9 24,9 m 0,2 c 7.18,0 13,5.82 13,13 0,7.18 -5.82,13 -13,13 -7.18,0 -13,-5.82 -13,-13 0,-7.18 5.82,-13 13,-13 m 0,0"
       inkscape:connector-curvature="0"
       style="fill:#ececec;fill-opacity:1;fill-rule:nonzero;stroke:none" />
  </g>
</svg>

<svg xmlns="http://www.w3.org/2000/svg" viewBox="0 0 48 48">
 <defs>
  <linearGradient id="linearGradient3764" x1="1" x2="47" gradientUnits="userSpaceOnUse" gradientTransform="matrix(0,-1,1,0,-1.5e-6,47.999998)">
   <stop style="stop-color:#71bcbf;stop-opacity:1"/>
   <stop offset="1" style="stop-color:#7ec2c5;stop-opacity:1"/>
  </linearGradient>
  <clipPath id="clipPath-369311774">
   <g transform="translate(0,-1004.3622)">
    <path d="m -24 13 c 0 1.105 -0.672 2 -1.5 2 -0.828 0 -1.5 -0.895 -1.5 -2 0 -1.105 0.672 -2 1.5 -2 0.828 0 1.5 0.895 1.5 2 z" transform="matrix(15.333333,0,0,11.5,414.99999,878.8622)" style="fill:#1890d0"/>
   </g>
  </clipPath>
  <clipPath id="clipPath-378684348">
   <g transform="translate(0,-1004.3622)">
    <path d="m -24 13 c 0 1.105 -0.672 2 -1.5 2 -0.828 0 -1.5 -0.895 -1.5 -2 0 -1.105 0.672 -2 1.5 -2 0.828 0 1.5 0.895 1.5 2 z" transform="matrix(15.333333,0,0,11.5,414.99999,878.8622)" style="fill:#1890d0"/>
   </g>
  </clipPath>
 </defs>
 <g>
  <path d="m 36.31 5 c 5.859 4.062 9.688 10.831 9.688 18.5 c 0 12.426 -10.07 22.5 -22.5 22.5 c -7.669 0 -14.438 -3.828 -18.5 -9.688 c 1.037 1.822 2.306 3.499 3.781 4.969 c 4.085 3.712 9.514 5.969 15.469 5.969 c 12.703 0 23 -10.298 23 -23 c 0 -5.954 -2.256 -11.384 -5.969 -15.469 c -1.469 -1.475 -3.147 -2.744 -4.969 -3.781 z m 4.969 3.781 c 3.854 4.113 6.219 9.637 6.219 15.719 c 0 12.703 -10.297 23 -23 23 c -6.081 0 -11.606 -2.364 -15.719 -6.219 c 4.16 4.144 9.883 6.719 16.219 6.719 c 12.703 0 23 -10.298 23 -23 c 0 -6.335 -2.575 -12.06 -6.719 -16.219 z" style="opacity:0.05"/>
  <path d="m 41.28 8.781 c 3.712 4.085 5.969 9.514 5.969 15.469 c 0 12.703 -10.297 23 -23 23 c -5.954 0 -11.384 -2.256 -15.469 -5.969 c 4.113 3.854 9.637 6.219 15.719 6.219 c 12.703 0 23 -10.298 23 -23 c 0 -6.081 -2.364 -11.606 -6.219 -15.719 z" style="opacity:0.1"/>
  <path d="m 31.25 2.375 c 8.615 3.154 14.75 11.417 14.75 21.13 c 0 12.426 -10.07 22.5 -22.5 22.5 c -9.708 0 -17.971 -6.135 -21.12 -14.75 a 23 23 0 0 0 44.875 -7 a 23 23 0 0 0 -16 -21.875 z" style="opacity:0.2"/>
 </g>
 <g>
  <path d="m 24 1 c 12.703 0 23 10.297 23 23 c 0 12.703 -10.297 23 -23 23 -12.703 0 -23 -10.297 -23 -23 0 -12.703 10.297 -23 23 -23 z" style="fill:url(#linearGradient3764);fill-opacity:1"/>
 </g>
 <g>
  <path d="m 40.03 7.531 c 3.712 4.084 5.969 9.514 5.969 15.469 0 12.703 -10.297 23 -23 23 c -5.954 0 -11.384 -2.256 -15.469 -5.969 4.178 4.291 10.01 6.969 16.469 6.969 c 12.703 0 23 -10.298 23 -23 0 -6.462 -2.677 -12.291 -6.969 -16.469 z" style="opacity:0.1"/>
 </g>
 <g>
  <g>
   <g style="clip-path:url(#clipPath-369311774)">
    <g transform="translate(1,1)">
     <g style="opacity:0.1">
      <!-- color: #7ec2c5 -->
      <g>
       <path d="m 38 24 c 0 7.734 -6.266 14 -14 14 c -7.734 0 -14 -6.27 -14 -14 c 0 -7.734 6.266 -14 14 -14 c 7.734 0 14 6.27 14 14 m 0 0" style="fill:#000;fill-opacity:1;stroke:none;fill-rule:nonzero"/>
       <path d="m 23 20 l 0 12 l 2 0 l 0 -12 m -2 0" style="fill:#000;fill-opacity:1;stroke:none;fill-rule:nonzero"/>
       <path d="m 25 17 c 0 0.551 -0.449 1 -1 1 c -0.551 0 -1 -0.449 -1 -1 c 0 -0.551 0.449 -1 1 -1 c 0.551 0 1 0.449 1 1 m 0 0" style="fill:#000;fill-opacity:1;stroke:none;fill-rule:nonzero"/>
       <path d="m 24 9 c -8.285 0 -15 6.715 -15 15 c 0 8.285 6.715 15 15 15 c 8.285 0 15 -6.715 15 -15 c 0 -8.285 -6.715 -15 -15 -15 m 0 2 c 7.18 0 13 5.82 13 13 c 0 7.18 -5.82 13 -13 13 c -7.18 0 -13 -5.82 -13 -13 c 0 -7.18 5.82 -13 13 -13 m 0 0" style="fill:#000;fill-opacity:1;stroke:none;fill-rule:nonzero"/>
      </g>
     </g>
    </g>
   </g>
  </g>
  <g>
   <g style="clip-path:url(#clipPath-378684348)">
    <!-- color: #7ec2c5 -->
    <g>
     <path d="M 24,9 C 15.715,9 9,15.715 9,24 9,32.285 15.715,39 24,39 32.285,39 39,32.285 39,24 39,15.715 32.285,9 24,9" style="fill:#2a8ff6;fill-opacity:1;stroke:none;fill-rule:nonzero"/>
    </g>
   </g>
  </g>
  <path d="m 22 31 c 0 -6.518 4.828 -8.25 4.828 -8.25 l 0.332 3.805 5.84 -8.1 -9.455 -2.455 c 0 0 1.944 2.938 2.036 3.15 c -4.361 2.071 -7.582 5.341 -7.582 11.85 l 0 2 l 4 0 c 0 0 0 -1.25 0 -2 z" style="fill:#000;fill-opacity:0.098"/>
  <path d="m 21 30 c 0 -6.518 4.828 -8.25 4.828 -8.25 l 0.332 3.805 5.84 -8.1 -9.455 -2.455 c 0 0 1.944 2.938 2.036 3.15 c -4.361 2.071 -7.582 5.341 -7.582 11.85 l 0 2 l 4 0 c 0 0 0 -1.25 0 -2 z" style="fill:#ececec;fill-opacity:1"/>
  <path d="M 24,9 C 15.715,9 9,15.715 9,24 9,32.285 15.715,39 24,39 32.285,39 39,32.285 39,24 39,15.715 32.285,9 24,9 m 0,2 c 7.18,0 13,5.82 13,13 0,7.18 -5.82,13 -13,13 -7.18,0 -13,-5.82 -13,-13 0,-7.18 5.82,-13 13,-13 m 0,0" style="fill:#ececec;fill-opacity:1;stroke:none;fill-rule:nonzero"/>
 </g>
</svg>
